X: 1
T: A Moonlight Ramble
M: 4/4
L: 1/8
R: reel
K: Cmaj
|:gf|ec~c2 GE~E2|Dd{e}d^c ~d3f|ec~c2 GFED|CcBd c2:|
cf|ecgc acgc|Ad{e}d^c ~d3f|ecgc acgc|GcBd ~c3f|
ecgc acgc|Ad{e}d^c ~d3f|(3efg ag fedc|GcBd ce|
